client/src/assets/icon-burger-menu.svg

<svg height="15.75" viewBox="0 0 27 15.75" width="27" xmlns="http://www.w3.org/2000/svg"><g transform="translate(-4.5 -10.125)"><path d="m30.375 12.375h-24.75a1.128 1.128 0 0 1 -1.125-1.125 1.128 1.128 0 0 1 1.125-1.125h24.75a1.128 1.128 0 0 1 1.125 1.125 1.128 1.128 0 0 1 -1.125 1.125z"/><path d="m30.375 19.125h-24.75a1.128 1.128 0 0 1 -1.125-1.125 1.128 1.128 0 0 1 1.125-1.125h24.75a1.128 1.128 0 0 1 1.125 1.125 1.128 1.128 0 0 1 -1.125 1.125z"/><path d="m30.375 25.875h-24.75a1.128 1.128 0 0 1 -1.125-1.125 1.128 1.128 0 0 1 1.125-1.125h24.75a1.128 1.128 0 0 1 1.125 1.125 1.128 1.128 0 0 1 -1.125 1.125z"/></g></svg>

<svg xmlns="http://www.w3.org/2000/svg" width="27" height="15.75" viewBox="0 0 27 15.75">
  <g id="icon-burger-menu" transform="translate(-4.5 -10.125)">
    <path id="Path_11" data-name="Path 11" d="M30.375,12.375H5.625A1.128,1.128,0,0,1,4.5,11.25h0a1.128,1.128,0,0,1,1.125-1.125h24.75A1.128,1.128,0,0,1,31.5,11.25h0A1.128,1.128,0,0,1,30.375,12.375Z"/>
    <path id="Path_12" data-name="Path 12" d="M30.375,19.125H5.625A1.128,1.128,0,0,1,4.5,18h0a1.128,1.128,0,0,1,1.125-1.125h24.75A1.128,1.128,0,0,1,31.5,18h0A1.128,1.128,0,0,1,30.375,19.125Z"/>
    <path id="Path_13" data-name="Path 13" d="M30.375,25.875H5.625A1.128,1.128,0,0,1,4.5,24.75h0a1.128,1.128,0,0,1,1.125-1.125h24.75A1.128,1.128,0,0,1,31.5,24.75h0A1.128,1.128,0,0,1,30.375,25.875Z"/>
  </g>
</svg>
